Numix/24/emotes/face-hug-left.svg

<?xml version="1.0" encoding="UTF-8" standalone="no"?>
<svg
   xmlns:dc="http://purl.org/dc/elements/1.1/"
   xmlns:cc="http://creativecommons.org/ns#"
   xmlns:rdf="http://www.w3.org/1999/02/22-rdf-syntax-ns#"
   xmlns:svg="http://www.w3.org/2000/svg"
   xmlns="http://www.w3.org/2000/svg"
   xmlns:sodipodi="http://sodipodi.sourceforge.net/DTD/sodipodi-0.dtd"
   xmlns:inkscape="http://www.inkscape.org/namespaces/inkscape"
   width="24px"
   height="24px"
   viewBox="0 0 18 18"
   version="1.1"
   id="svg1175"
   inkscape:version="0.91 r"
   sodipodi:docname="face-hug-left.svg">
  <metadata
     id="metadata1194">
    <rdf:RDF>
      <cc:Work
         rdf:about="">
        <dc:format>image/svg+xml</dc:format>
        <dc:type
           rdf:resource="http://purl.org/dc/dcmitype/StillImage" />
      </cc:Work>
    </rdf:RDF>
  </metadata>
  <defs
     id="defs1192" />
  <sodipodi:namedview
     pagecolor="#ffffff"
     bordercolor="#666666"
     borderopacity="1"
     objecttolerance="10"
     gridtolerance="10"
     guidetolerance="10"
     inkscape:pageopacity="0"
     inkscape:pageshadow="2"
     inkscape:window-width="640"
     inkscape:window-height="480"
     id="namedview1190" />
  <g
     id="surface1">
    <path
       style=" stroke:none;fill-rule:nonzero;fill:rgb(81.568627%,62.745098%,0%);fill-opacity:1;"
       d="M 14.625 9.1875 C 14.625 8.875 15.210938 8.625 15.9375 8.625 C 16.664062 8.625 17.25 8.875 17.25 9.1875 C 17.25 9.5 16.664062 9.75 15.9375 9.75 C 15.210938 9.75 14.625 9.5 14.625 9.1875 Z M 14.625 9.1875 "
       id="path1178" />
    <path
       style=" stroke:none;fill-rule:nonzero;fill:rgb(100%,85.490196%,36.862745%);fill-opacity:1;"
       d="M 2.25 9 C 2.25 12.210938 5.273438 14.8125 9 14.8125 C 12.726562 14.8125 15.75 12.210938 15.75 9 C 15.75 5.789062 12.726562 3.1875 9 3.1875 C 5.273438 3.1875 2.25 5.789062 2.25 9 Z M 2.25 9 "
       id="path1180" />
    <path
       style=" stroke:none;fill-rule:nonzero;fill:rgb(39.607843%,39.607843%,39.607843%);fill-opacity:1;"
       d="M 12.75 6.75 C 13.269531 6.75 13.6875 7.167969 13.6875 7.6875 C 13.6875 7.78125 13.671875 7.875 13.644531 7.96875 C 13.519531 7.578125 13.160156 7.3125 12.75 7.3125 C 12.339844 7.3125 11.980469 7.578125 11.855469 7.96875 C 11.828125 7.878906 11.8125 7.785156 11.8125 7.6875 C 11.8125 7.167969 12.230469 6.75 12.75 6.75 Z M 12.75 6.75 "
       id="path1182" />
    <path
       style=" stroke:none;fill-rule:nonzero;fill:rgb(39.607843%,39.607843%,39.607843%);fill-opacity:1;"
       d="M 8.25 6.75 C 8.769531 6.75 9.1875 7.167969 9.1875 7.6875 C 9.1875 7.78125 9.171875 7.875 9.144531 7.96875 C 9.019531 7.578125 8.660156 7.3125 8.25 7.3125 C 7.839844 7.3125 7.480469 7.578125 7.355469 7.96875 C 7.328125 7.878906 7.3125 7.785156 7.3125 7.6875 C 7.3125 7.167969 7.730469 6.75 8.25 6.75 Z M 8.25 6.75 "
       id="path1184" />
    <path
       style=" stroke:none;fill-rule:nonzero;fill:rgb(39.607843%,39.607843%,39.607843%);fill-opacity:1;"
       d="M 13.085938 10.5 C 12.875 11.582031 11.78125 12.375 10.5 12.375 C 9.21875 12.375 8.128906 11.582031 7.914062 10.5 L 8.277344 10.5 C 8.433594 11.144531 9.382812 11.625 10.5 11.625 C 11.617188 11.625 12.566406 11.144531 12.722656 10.5 Z M 13.085938 10.5 "
       id="path1186" />
    <path
       style=" stroke:none;fill-rule:nonzero;fill:rgb(81.568627%,62.745098%,0%);fill-opacity:1;"
       d="M 3.75 9.9375 C 3.75 9.625 4.335938 9.375 5.0625 9.375 C 5.789062 9.375 6.375 9.625 6.375 9.9375 C 6.375 10.25 5.789062 10.5 5.0625 10.5 C 4.335938 10.5 3.75 10.25 3.75 9.9375 Z M 3.75 9.9375 "
       id="path1188" />
  </g>
</svg>

<svg xmlns="http://www.w3.org/2000/svg" width="24" height="24" viewBox="0 0 18 18">
 <g>
  <path d="m 14.625 9.188 c 0 -0.313 0.586 -0.563 1.313 -0.563 c 0.727 0 1.313 0.25 1.313 0.563 c 0 0.313 -0.586 0.563 -1.313 0.563 c -0.727 0 -1.313 -0.25 -1.313 -0.563 m 0 0" style="fill:#cf9f00;fill-opacity:1;stroke:none;fill-rule:nonzero"/>
  <path d="m 2.25 9 c 0 3.211 3.02 5.813 6.75 5.813 c 3.727 0 6.75 -2.602 6.75 -5.813 c 0 -3.211 -3.02 -5.813 -6.75 -5.813 c -3.727 0 -6.75 2.602 -6.75 5.813 m 0 0" style="fill:#ffd95d;fill-opacity:1;stroke:none;fill-rule:nonzero"/>
  <path d="m 12.75 6.75 c 0.52 0 0.938 0.418 0.938 0.938 c 0 0.094 -0.016 0.188 -0.043 0.281 c -0.125 -0.391 -0.484 -0.656 -0.895 -0.656 c -0.41 0 -0.77 0.266 -0.895 0.656 c -0.027 -0.09 -0.043 -0.184 -0.043 -0.281 c 0 -0.52 0.418 -0.938 0.938 -0.938 m 0 0" style="fill:#646464;fill-opacity:1;stroke:none;fill-rule:nonzero"/>
  <path d="m 8.25 6.75 c 0.52 0 0.938 0.418 0.938 0.938 c 0 0.094 -0.016 0.188 -0.043 0.281 c -0.125 -0.391 -0.484 -0.656 -0.895 -0.656 c -0.41 0 -0.77 0.266 -0.895 0.656 c -0.027 -0.09 -0.043 -0.184 -0.043 -0.281 c 0 -0.52 0.418 -0.938 0.938 -0.938 m 0 0" style="fill:#646464;fill-opacity:1;stroke:none;fill-rule:nonzero"/>
  <path d="m 13.09 10.5 c -0.211 1.082 -1.305 1.875 -2.586 1.875 c -1.281 0 -2.371 -0.793 -2.586 -1.875 l 0.363 0 c 0.156 0.645 1.105 1.125 2.223 1.125 c 1.117 0 2.066 -0.48 2.223 -1.125 m 0.363 0" style="fill:#646464;fill-opacity:1;stroke:none;fill-rule:nonzero"/>
  <path d="m 3.75 9.938 c 0 -0.313 0.586 -0.563 1.313 -0.563 c 0.727 0 1.313 0.25 1.313 0.563 c 0 0.313 -0.586 0.563 -1.313 0.563 c -0.727 0 -1.313 -0.25 -1.313 -0.563 m 0 0" style="fill:#cf9f00;fill-opacity:1;stroke:none;fill-rule:nonzero"/>
 </g>
</svg>
